dji-master/img/content/specifications/video-files.svg

<svg width="35" height="35" viewBox="0 0 35 35" fill="none" xmlns="http://www.w3.org/2000/svg">
<g clip-path="url(#clip0)">
<path d="M31.583 6.28917H28.7118V3.41796C28.7118 1.53329 27.1785 0 25.2939 0H3.41893C1.53427 0 0.000976562 1.53329 0.000976562 3.41796V25.2929C0.000976562 27.1775 1.53427 28.7108 3.41893 28.7108H6.29009V31.582C6.29009 33.4667 7.82338 35 9.70804 35H31.583C33.4676 35 35.0009 33.4667 35.0009 31.582V9.70706C35.001 7.8224 33.4677 6.28917 31.583 6.28917ZM3.41893 27.3436C2.28814 27.3436 1.36816 26.4237 1.36816 25.2929V3.41796C1.36816 2.28716 2.28814 1.36718 3.41893 1.36718H25.2939C26.4247 1.36718 27.3446 2.28716 27.3446 3.41796V25.2929C27.3446 26.4237 26.4247 27.3436 25.2939 27.3436H3.41893ZM33.6337 31.582C33.6337 32.7128 32.7138 33.6328 31.583 33.6328H9.70804C8.57725 33.6328 7.65727 32.7128 7.65727 31.582V28.7108H25.2939C27.1785 28.7108 28.7118 27.1775 28.7118 25.2929V7.65636H31.583C32.7138 7.65636 33.6337 8.57633 33.6337 9.70713V31.582Z" fill="#1AA0E8"/>
<path d="M9.72451 31.2402H9.70605C9.3285 31.2402 9.02246 31.5463 9.02246 31.9238C9.02246 32.3014 9.3285 32.6074 9.70605 32.6074H9.72451C10.1021 32.6074 10.4081 32.3014 10.4081 31.9238C10.4081 31.5463 10.1021 31.2402 9.72451 31.2402Z" fill="#1AA0E8"/>
<path d="M31.584 31.2402H11.6885C11.3109 31.2402 11.0049 31.5463 11.0049 31.9238C11.0049 32.3014 11.3109 32.6074 11.6885 32.6074H31.584C31.9614 32.6074 32.2676 32.3014 32.2676 31.9238C32.2676 31.5463 31.9615 31.2402 31.584 31.2402Z" fill="#1AA0E8"/>
<path d="M7.52236 2.39258H7.5039C7.12636 2.39258 6.82031 2.69862 6.82031 3.07617C6.82031 3.45372 7.12636 3.75976 7.5039 3.75976H7.52236C7.89991 3.75976 8.20595 3.45372 8.20595 3.07617C8.20595 2.69862 7.89998 2.39258 7.52236 2.39258Z" fill="#1AA0E8"/>
<path d="M5.53949 2.39258H3.41797C3.04042 2.39258 2.73438 2.69862 2.73438 3.07617C2.73438 3.45372 3.04042 3.75976 3.41797 3.75976H5.53942C5.91697 3.75976 6.22301 3.45372 6.22301 3.07617C6.22308 2.69862 5.91704 2.39258 5.53949 2.39258Z" fill="#1AA0E8"/>
<path d="M20.0622 13.7492C19.8997 13.1477 19.5128 12.6455 18.9738 12.3358L15.6298 10.4052C15.5962 10.3834 15.5624 10.3625 15.5283 10.343L12.1929 8.41716C11.8109 8.16525 11.3668 8.03223 10.9069 8.03223C9.6169 8.03223 8.56738 9.08168 8.56738 10.3717V18.3432C8.56738 18.371 8.56909 18.3985 8.5723 18.4254C8.58577 18.8069 8.69344 19.1815 8.8858 19.5137C9.30211 20.2325 10.0772 20.6791 10.9085 20.6791C11.3177 20.6791 11.722 20.5702 12.0767 20.3648L15.5283 18.3719C15.5479 18.3605 15.5667 18.3484 15.5847 18.3355L18.9493 16.3932C19.3166 16.188 19.6219 15.8861 19.8327 15.5196C20.1431 14.9794 20.2246 14.3507 20.0622 13.7492ZM18.6475 14.8383C18.5597 14.991 18.4328 15.1163 18.2805 15.2009C18.2771 15.2028 18.2737 15.2047 18.2703 15.2066L14.8433 17.185C14.8237 17.1963 14.8049 17.2085 14.7868 17.2214L11.3924 19.1813C11.2448 19.2667 11.0775 19.312 10.9085 19.312C10.5633 19.312 10.2416 19.1268 10.0689 18.8286C9.98324 18.6807 9.93805 18.513 9.93819 18.3439C9.93819 18.3206 9.93703 18.2974 9.93463 18.2745V10.3717H9.9347C9.9347 9.83561 10.3709 9.39941 10.907 9.39941C11.1019 9.39941 11.2895 9.45656 11.4495 9.56463C11.4629 9.57359 11.4765 9.58213 11.4904 9.5902L14.8462 11.5278C14.863 11.5375 14.8791 11.5477 14.8951 11.5583C14.9065 11.5658 14.918 11.573 14.9298 11.5798L18.2915 13.5206C18.515 13.649 18.6751 13.8568 18.7424 14.1058C18.8096 14.3548 18.7759 14.6149 18.6475 14.8383Z" fill="#1AA0E8"/>
</g>
<defs>
<clipPath id="clip0">
<rect width="35" height="35" fill="white"/>
</clipPath>
</defs>
</svg>

<svg width="35" height="35" fill="none" xmlns="http://www.w3.org/2000/svg"><g clip-path="url(#clip0)" fill="#1AA0E8"><path d="M31.583 6.29h-2.871V3.417A3.422 3.422 0 0025.294 0H3.419A3.422 3.422 0 000 3.418v21.875a3.422 3.422 0 003.418 3.418H6.29v2.871A3.422 3.422 0 009.708 35h21.875a3.422 3.422 0 003.418-3.418V9.707a3.422 3.422 0 00-3.418-3.418zM3.419 27.343c-1.13 0-2.05-.92-2.05-2.051V3.418c0-1.13.92-2.05 2.05-2.05h21.875c1.13 0 2.05.92 2.05 2.05v21.875c0 1.13-.92 2.05-2.05 2.05H3.419zm30.215 4.238c0 1.13-.92 2.05-2.051 2.05H9.708c-1.13 0-2.05-.92-2.05-2.05V28.71h17.636a3.422 3.422 0 003.418-3.418V7.656h2.871c1.13 0 2.05.92 2.05 2.051v21.875z"/><path d="M9.725 31.24h-.019a.684.684 0 000 1.367h.019a.684.684 0 100-1.367zm21.859 0H11.689a.684.684 0 100 1.367h19.895a.684.684 0 000-1.367zM7.522 2.393h-.018a.684.684 0 100 1.367h.018a.684.684 0 100-1.367zm-1.982 0H3.417a.684.684 0 100 1.367h2.121a.684.684 0 000-1.367zM20.062 13.75a2.316 2.316 0 00-1.088-1.414l-3.344-1.93a2.126 2.126 0 00-.102-.063l-3.335-1.926a2.342 2.342 0 00-3.626 1.955v7.971c0 .028.002.055.005.082a2.34 2.34 0 002.337 2.254 2.34 2.34 0 001.168-.314l3.451-1.993a.706.706 0 00.057-.037l3.364-1.942a2.332 2.332 0 001.113-2.644zm-1.415 1.088a.964.964 0 01-.366.363l-.01.006-3.428 1.978a.698.698 0 00-.056.036l-3.395 1.96a.968.968 0 01-1.454-.837.666.666 0 00-.003-.07v-7.902a.973.973 0 011.555-.782l3.356 1.938a.933.933 0 01.084.052l3.361 1.94a.959.959 0 01.451.586.959.959 0 01-.095.732z"/></g><defs><clipPath id="clip0"><path fill="#fff" d="M0 0h35v35H0z"/></clipPath></defs></svg>
